Numix-GalliumOS/64/mimetypes/application-vnd.oasis.opendocument.spreadsheet-template.svg

<svg xmlns="http://www.w3.org/2000/svg" xmlns:xlink="http://www.w3.org/1999/xlink" width="64px" height="64px" viewBox="0 0 64 64" version="1.1">
<g id="surface1">
<path style=" stroke:none;fill-rule:nonzero;fill:rgb(12.54902%,44.313725%,27.058824%);fill-opacity:1;" d="M 10.6875 0 C 9.3125 0 8 1.378906 8 2.8125 L 8 61.1875 C 8 62.539062 9.390625 64 10.6875 64 L 53.3125 64 C 54.609375 64 56 62.539062 56 61.1875 L 56 2.75 C 56 1.402344 54.597656 0 53.25 0 Z M 10.6875 0 "/>
<path style=" stroke:none;fill-rule:nonzero;fill:rgb(100%,100%,100%);fill-opacity:1;" d="M 46 18 L 46 44 L 18 44 L 18 18 Z M 44 20 L 30 20 L 30 26 L 44 26 Z M 28 20 L 20 20 L 20 26 L 28 26 Z M 44 28 L 30 28 L 30 34 L 44 34 Z M 28 28 L 20 28 L 20 34 L 28 34 Z M 44 36 L 30 36 L 30 42 L 44 42 Z M 28 36 L 20 36 L 20 42 L 28 42 Z M 28 36 "/>
<path style=" stroke:none;fill-rule:nonzero;fill:rgb(0%,0%,0%);fill-opacity:0.196078;" d="M 8 48 L 8 61.335938 C 8 62.632812 9.375 64 10.664062 64 L 53.335938 64 C 54.625 64 56 62.632812 56 61.335938 L 56 48 Z M 8 48 "/>
<path style=" stroke:none;fill-rule:nonzero;fill:rgb(100%,100%,100%);fill-opacity:1;" d="M 20.472656 55.941406 C 20.472656 56.507812 20.488281 57.039062 20.535156 57.535156 C 20.597656 58.023438 20.695312 58.449219 20.835938 58.816406 C 20.988281 59.179688 21.199219 59.460938 21.464844 59.675781 C 21.730469 59.886719 22.097656 59.996094 22.546875 59.996094 C 22.984375 59.996094 23.328125 59.886719 23.605469 59.675781 C 23.878906 59.460938 24.09375 59.179688 24.234375 58.816406 C 24.394531 58.433594 24.492188 58.007812 24.527344 57.519531 C 24.589844 57.03125 24.617188 56.507812 24.617188 55.941406 C 24.617188 55.378906 24.589844 54.855469 24.527344 54.371094 C 24.492188 53.863281 24.394531 53.4375 24.234375 53.074219 C 24.09375 52.710938 23.886719 52.425781 23.621094 52.214844 C 23.355469 52 22.992188 51.894531 22.546875 51.894531 C 22.097656 51.894531 21.730469 52 21.464844 52.214844 C 21.199219 52.425781 20.988281 52.71875 20.835938 53.089844 C 20.695312 53.457031 20.597656 53.882812 20.535156 54.371094 C 20.488281 54.855469 20.472656 55.378906 20.472656 55.941406 M 17.828125 55.941406 C 17.828125 53.941406 18.246094 52.433594 19.078125 51.421875 C 19.914062 50.394531 21.066406 49.886719 22.546875 49.886719 C 24.082031 49.886719 25.246094 50.394531 26.054688 51.421875 C 26.851562 52.433594 27.261719 53.941406 27.261719 55.941406 C 27.261719 57.945312 26.851562 59.453125 26.035156 60.484375 C 25.210938 61.496094 24.058594 62 22.566406 62 C 21.03125 62 19.851562 61.496094 19.035156 60.484375 C 18.234375 59.453125 17.828125 57.945312 17.828125 55.941406 "/>
<path style=" stroke:none;fill-rule:nonzero;fill:rgb(100%,100%,100%);fill-opacity:1;" d="M 37.863281 50.144531 L 37.863281 52.0625 L 34.421875 52.0625 L 34.421875 61.761719 L 31.804688 61.761719 L 31.804688 52.0625 L 28.359375 52.0625 L 28.359375 50.144531 L 37.863281 50.144531 "/>
<path style=" stroke:none;fill-rule:nonzero;fill:rgb(100%,100%,100%);fill-opacity:1;" d="M 43.300781 60.066406 C 43.738281 60.066406 44.09375 60.03125 44.375 59.960938 C 44.667969 59.871094 44.910156 59.753906 45.078125 59.621094 C 45.246094 59.472656 45.351562 59.300781 45.414062 59.132812 C 45.484375 58.949219 45.519531 58.753906 45.519531 58.566406 C 45.519531 58.328125 45.441406 58.121094 45.289062 57.925781 C 45.128906 57.742188 44.933594 57.582031 44.695312 57.4375 C 44.457031 57.296875 44.191406 57.164062 43.886719 57.050781 C 43.59375 56.925781 43.300781 56.808594 43 56.710938 C 42.609375 56.585938 42.203125 56.445312 41.777344 56.277344 C 41.351562 56.117188 40.96875 55.914062 40.613281 55.664062 C 40.277344 55.40625 39.992188 55.105469 39.769531 54.742188 C 39.539062 54.371094 39.433594 53.90625 39.433594 53.359375 C 39.433594 52.265625 39.824219 51.414062 40.613281 50.800781 C 41.421875 50.191406 42.511719 49.886719 43.914062 49.886719 C 44.714844 49.886719 45.414062 49.96875 46 50.128906 C 46.613281 50.289062 47.117188 50.472656 47.527344 50.667969 L 46.761719 52.453125 C 46.417969 52.273438 46.019531 52.132812 45.582031 52 C 45.15625 51.875 44.667969 51.8125 44.101562 51.8125 C 42.71875 51.8125 42.035156 52.257812 42.035156 53.144531 C 42.035156 53.375 42.105469 53.570312 42.246094 53.75 C 42.378906 53.90625 42.558594 54.058594 42.769531 54.199219 C 42.992188 54.324219 43.242188 54.441406 43.507812 54.539062 C 43.789062 54.636719 44.066406 54.734375 44.332031 54.820312 C 44.738281 54.953125 45.164062 55.113281 45.601562 55.28125 C 46.054688 55.453125 46.460938 55.671875 46.824219 55.957031 C 47.207031 56.234375 47.515625 56.585938 47.757812 57.011719 C 47.996094 57.421875 48.121094 57.945312 48.121094 58.582031 C 48.121094 59.675781 47.710938 60.519531 46.914062 61.121094 C 46.125 61.707031 44.917969 62 43.300781 62 C 42.210938 62 41.351562 61.902344 40.703125 61.699219 C 40.054688 61.484375 39.566406 61.289062 39.238281 61.121094 L 40 59.242188 C 40.382812 59.445312 40.835938 59.632812 41.351562 59.808594 C 41.890625 59.976562 42.539062 60.066406 43.300781 60.066406 "/>
</g>
</svg>

<svg xmlns="http://www.w3.org/2000/svg" viewBox="0 0 64 64">
 <g>
  <path d="m 10.688 0 c -1.375 0 -2.688 1.379 -2.688 2.813 l 0 58.38 c 0 1.352 1.391 2.813 2.688 2.813 l 42.625 0 c 1.297 0 2.688 -1.461 2.688 -2.813 l 0 -58.44 c 0 -1.348 -1.402 -2.75 -2.75 -2.75 m -42.563 0" style="fill:#207045;fill-opacity:1;stroke:none;fill-rule:nonzero"/>
  <path d="m 46 18 l 0 26 l -28 0 l 0 -26 m 26 2 l -14 0 l 0 6 l 14 0 m -16 -6 l -8 0 l 0 6 l 8 0 m 16 2 l -14 0 l 0 6 l 14 0 m -16 -6 l -8 0 l 0 6 l 8 0 m 16 2 l -14 0 l 0 6 l 14 0 m -16 -6 l -8 0 l 0 6 l 8 0 m 0 -6" style="fill:#fff;fill-opacity:1;stroke:none;fill-rule:nonzero"/>
  <path d="m 8 48 l 0 13.336 c 0 1.297 1.375 2.664 2.664 2.664 l 42.672 0 c 1.289 0 2.664 -1.367 2.664 -2.664 l 0 -13.336 m -48 0" style="fill:#000;fill-opacity:0.196;stroke:none;fill-rule:nonzero"/>
  <path d="m 20.473 55.941 c 0 0.566 0.016 1.098 0.063 1.594 c 0.063 0.488 0.16 0.914 0.301 1.281 c 0.152 0.363 0.363 0.645 0.629 0.859 c 0.266 0.211 0.633 0.32 1.082 0.32 c 0.438 0 0.781 -0.109 1.059 -0.32 c 0.273 -0.215 0.488 -0.496 0.629 -0.859 c 0.16 -0.383 0.258 -0.809 0.293 -1.297 c 0.063 -0.488 0.09 -1.012 0.09 -1.578 c 0 -0.563 -0.027 -1.086 -0.09 -1.57 c -0.035 -0.508 -0.133 -0.934 -0.293 -1.297 c -0.141 -0.363 -0.348 -0.648 -0.613 -0.859 c -0.266 -0.215 -0.629 -0.32 -1.074 -0.32 c -0.449 0 -0.816 0.105 -1.082 0.32 c -0.266 0.211 -0.477 0.504 -0.629 0.875 c -0.141 0.367 -0.238 0.793 -0.301 1.281 c -0.047 0.484 -0.063 1.01 -0.063 1.57 m -2.645 0 c 0 -2 0.418 -3.508 1.25 -4.52 c 0.836 -1.027 1.988 -1.535 3.469 -1.535 c 1.535 0 2.699 0.508 3.508 1.535 c 0.797 1.012 1.207 2.52 1.207 4.52 c 0 2 -0.41 3.512 -1.227 4.543 c -0.824 1.012 -1.977 1.516 -3.469 1.516 c -1.535 0 -2.715 -0.504 -3.531 -1.516 c -0.801 -1.031 -1.207 -2.539 -1.207 -4.543" style="fill:#fff;fill-opacity:1;stroke:none;fill-rule:nonzero"/>
  <path d="m 37.863 50.14 l 0 1.918 l -3.441 0 l 0 9.699 l -2.617 0 l 0 -9.699 l -3.445 0 l 0 -1.918 l 9.504 0" style="fill:#fff;fill-opacity:1;stroke:none;fill-rule:nonzero"/>
  <path d="m 43.3 60.07 c 0.438 0 0.793 -0.035 1.074 -0.105 c 0.293 -0.09 0.535 -0.207 0.703 -0.34 c 0.168 -0.148 0.273 -0.32 0.336 -0.488 c 0.07 -0.184 0.105 -0.379 0.105 -0.566 c 0 -0.238 -0.078 -0.445 -0.23 -0.641 c -0.16 -0.184 -0.355 -0.344 -0.594 -0.488 c -0.238 -0.141 -0.504 -0.273 -0.809 -0.387 c -0.293 -0.125 -0.586 -0.242 -0.887 -0.34 c -0.391 -0.125 -0.797 -0.266 -1.223 -0.434 c -0.426 -0.16 -0.809 -0.363 -1.164 -0.613 c -0.336 -0.258 -0.621 -0.559 -0.844 -0.922 c -0.23 -0.371 -0.336 -0.836 -0.336 -1.383 c 0 -1.094 0.391 -1.945 1.18 -2.559 c 0.809 -0.609 1.898 -0.914 3.301 -0.914 c 0.801 0 1.5 0.082 2.086 0.242 c 0.613 0.16 1.117 0.344 1.527 0.539 l -0.766 1.785 c -0.344 -0.18 -0.742 -0.32 -1.18 -0.453 c -0.426 -0.125 -0.914 -0.188 -1.48 -0.188 c -1.383 0 -2.066 0.445 -2.066 1.332 c 0 0.23 0.07 0.426 0.211 0.605 c 0.133 0.156 0.313 0.309 0.523 0.449 c 0.223 0.125 0.473 0.242 0.738 0.34 c 0.281 0.098 0.559 0.195 0.824 0.281 c 0.406 0.133 0.832 0.293 1.27 0.461 c 0.453 0.172 0.859 0.391 1.223 0.676 c 0.383 0.277 0.691 0.629 0.934 1.055 c 0.238 0.41 0.363 0.934 0.363 1.57 c 0 1.094 -0.41 1.938 -1.207 2.539 c -0.789 0.586 -1.996 0.879 -3.613 0.879 c -1.09 0 -1.949 -0.098 -2.598 -0.301 c -0.648 -0.215 -1.137 -0.41 -1.465 -0.578 l 0.762 -1.879 c 0.383 0.203 0.836 0.391 1.352 0.566 c 0.539 0.168 1.188 0.258 1.949 0.258" style="fill:#fff;fill-opacity:1;stroke:none;fill-rule:nonzero"/>
 </g>
</svg>
